X:2660
T:Careu Llaniscu (MG 69)
R:Careu
C:Versin del Gaiteru Armando Fernndez
S:Msica Tradicional Asturiana, (C) Tello & Tito. Asturies, 2001.
S:http://pagina.de/MusTradAst <telloytito@asturies.org>
O:Llanes
A:Asturies
Z:Mtodu de Gaita 69
E:Comp.
M:2/4
L:1/8
Q:1/4=100
K:C
~G|: CG CD|{EGEF}E2 EE|{A}GF ~ED|C3 ~G :|
|CG CD|{EGEF}E2 EE|{A}GF ~ED|{EGEF}E2 EE|{A}GF ~ED|{A}GF ~ED|{A}GF ~ED|C3 E|
